img/list-marker-9@35px.svg

<?xml version="1.0" encoding="UTF-8"?>
<svg width="24px" height="24px" viewBox="0 0 24 24" version="1.1" xmlns="http://www.w3.org/2000/svg" xmlns:xlink="http://www.w3.org/1999/xlink">
    <!-- Generator: Sketch 64 (93537) - https://sketch.com -->
    <title>list-marker-9@35px</title>
    <desc>Created with Sketch.</desc>
    <g id="list-marker-9@35px" stroke="none" stroke-width="1" fill="none" fill-rule="evenodd">
        <path d="M12,4 C16.418278,4 20,7.581722 20,12 C20,16.418278 16.418278,20 12,20 C7.581722,20 4,16.418278 4,12 C4,7.581722 7.581722,4 12,4 Z M12.1047273,8.36363636 C10.8916364,8.36363636 9.82690909,9.07054545 9.81818182,10.432 C9.81818182,11.6538182 10.6385455,12.3432727 11.7818182,12.3432727 C12.2792727,12.3432727 12.6894545,12.1949091 12.9687273,11.9854545 C12.7156364,13.3643636 11.9301818,14.1847273 10.4378182,14.6996364 L10.4814545,14.9614545 C12.8814545,14.5163636 14.4872727,13.0501818 14.4872727,11.0254545 C14.4872727,9.34981818 13.6145455,8.36363636 12.1047273,8.36363636 Z M12.1221818,8.66036364 C12.6807273,8.66036364 13.0647273,9.20145455 13.0647273,10.8421818 C13.0647273,11.1563636 13.0472727,11.4530909 13.0123636,11.7323636 C12.8116364,11.872 12.6021818,11.9418182 12.3403636,11.9418182 C11.6421818,11.9418182 11.2145455,11.3047273 11.2145455,10.2487273 C11.2145455,9.13163636 11.6334545,8.66036364 12.1221818,8.66036364 Z" id="Combined-Shape" fill="#5C7D7B"></path>
    </g>
</svg>

<svg width="24" height="24" xmlns="http://www.w3.org/2000/svg"><path d="M12 4a8 8 0 110 16 8 8 0 010-16zm.105 4.364c-1.213 0-2.278.707-2.287 2.068 0 1.222.82 1.911 1.964 1.911.497 0 .907-.148 1.187-.358-.253 1.38-1.039 2.2-2.531 2.715l.043.261c2.4-.445 4.006-1.91 4.006-3.936 0-1.675-.872-2.661-2.382-2.661zm.017.296c.559 0 .943.541.943 2.182 0 .314-.018.611-.053.89-.2.14-.41.21-.672.21-.698 0-1.125-.637-1.125-1.693 0-1.117.418-1.589.907-1.589z" fill="#5C7D7B" fill-rule="evenodd"/></svg>
